!!!OTL: Jinnian niantou xiyiangayiang
!!!ARE: Asia, China,ÿAnhui Chuxian
!! III, 526
!!!SCT: C2039
!!!YEM: Copyright 1995, estate of Helmut Schaffrath.
**kern
*ICvox
*Ivox
!! Mixed meters:  2/4; 3/4
*M3/4
*k[f#c#g#d#]
*E:
{4.f#
8c#
=1
8B
8c#
8e
8f#
=2
2e}
=3
{8e
8f#
8g#
8g#
4b
=4
*M2/4
8cc#
16cc#
16b
4g#
=5
4b
8cc#
8g#
=6
8f#
8c#
8e
8f#
=7
*M3/4
16e
16f#
8c#
2B}
=8
*M2/4
{8B
8c#
8e
8f#
=9
2e}
=10
*M3/4
{8e
8f#
8g#
8g#
4b
=11
*M2/4
8cc#
16cc#
16b
4g#
=12
8b
8cc#
4e
=13
4f#
4g#
=14
8g#
8f#
[4f#
=15
4f#]
4g#
=16
8g#
4.f#}
=17
{4b
8ee
8b
=18
2cc#}
=19
{4ff#
8ee
8cc#
=20
8cc#
8b
4g#
=21
8g#
8r
4r}
=22
{4cc#
8ee
8cc#
=23
2b}
=24
{4cc#
8b
8g#
=25
2f#}
=26
{8f#
8g#
8b
8ee
=27
8cc#
8b
4g#}
=28
{4cc#
8b
8g#
=29
8g#
8f#
[4e
=30
4e]
4f#
=31
4c#
4r}
==
!!!AGN: Xiaodiao, Fengbailiu diao
!!!AMT: irregular
!!!AIN: vox
!!!EED: Helmut Schaffrath
!!!EEV: 1.0
*-
!!!ONB: Tied note syntax fixed by Craig Sapp, 2004/05/03/
